svg/u1f4e0.svg

<svg viewBox="0 0 128 128" xmlns="http://www.w3.org/2000/svg">
  <g>
    <path d="M73.38,97.83v23.39h44.68c2.98,0,5.78-1.74,6.92-4.22c2.38-5.19,0.66-18.75,0.66-18.75L73.38,97.83z " fill="#616161"/>
    <path d="M87.07,97.83v23.39H15.2c-2.98,0-5.78-1.74-6.92-4.22c-2.38-5.19-0.66-18.75-0.66-18.75L87.07,97.83 z" fill="#616161"/>
    <path d="M42.31,41.57h61.91c0,0,2.86-21.25-3.42-37.66H38.89C43.84,19.27,42.31,41.57,42.31,41.57z" fill="#E0E0E0"/>
    <polygon points="42.12,46.55 103.66,46.14 104.58,39.58 42.41,39.58 " fill="#BDBDBD"/>
    <path d="M116.82,106.44H15.9c-6.54,0-9.36-2.74-8.81-8.81l4.52-48.61c0.97-5.47,3.41-7.1,8.26-7.1h92.98 c4.85,0,6.67,3.62,6.81,5.5l5.97,50.21C125.63,103.52,125.08,106.44,116.82,106.44z" fill="#424242"/>
    <path d="M16,87.92c0,0.47-2.3,6.27,4.7,11.23c3.23,2.29,19.01,2.56,20.67-9.11s1.7-39.34,1.7-43.9s-11.01-4.62-14.61,3.29 S16,87.92,16,87.92z"/>
    <path d="M26.98,98.01c-4.04,0-7.87-1.88-10.02-4.86c-2.76-3.83-1.93-7.98-1.47-12.24 c1.14-10.52,2.55-21.03,4.61-31.43c3.1-15.69,12.99-13.29,14.77-12.95c6.32,1.22,7.3,7.68,7,10.01c-0.51,4.06-2.71,5.53-2.91,5.84 c-0.17,0.25-0.19,0.56-0.2,0.85c0,0-1.75,16.53-2.1,24.37c-0.03,0.63,1.2,0.92,2.05,3.26c1.25,3.44,0.69,8.29-1.18,11.49 C35.52,95.78,31.39,98.01,26.98,98.01z" fill="#616161"/>
    <path d="M26.98,98.01c-4.04,0-7.87-1.88-10.02-4.86c-0.6-0.83-1.96-3.47-1.21-3.93 c0.75-0.46,1.72-0.1,2.56,0.17c3.24,1.02,7.03,1.38,9.82-0.55c2-1.39,3.14-3.75,3.7-6.12c0.33-1.4,0.52-2.91,1.43-4.03 c2.09-2.6,4.66-0.02,5.46,2.17c1.25,3.44,0.69,8.29-1.18,11.49C35.52,95.78,31.39,98.01,26.98,98.01z" fill="#424242"/>
    <path d="M82.51,57.32H52.09c-2.51,0-4.56-2.42-4.56-5.38v-0.01c0-2.96,2.05-5.38,4.56-5.38H82.5c2.51,0,4.56,2.42,4.56,5.38v0.01 C87.07,54.9,85.02,57.32,82.51,57.32z"/>
    <path d="M80.89,57.34H53.71c-2.57,0-4.67-1.49-4.67-4.52v-0.01c0-3.03,2.1-4.52,4.67-4.52h27.16 c2.57,0,4.67,1.49,4.67,4.52v0.01C85.55,55.85,83.45,57.34,80.89,57.34z" fill="#7CB342"/>
    <g>
      <path d="M108.13,68.55H95.92c-1.52,0-2.76-1.24-2.76-2.76c0-1.52,1.24-2.76,2.76-2.76h12.21c1.52,0,2.76,1.24,2.76,2.76 C110.9,67.31,109.65,68.55,108.13,68.55z"/>
      <path d="M108.62,78.26H96.41c-1.52,0-2.76-1.24-2.76-2.76s1.24-2.76,2.76-2.76h12.21c1.52,0,2.76,1.24,2.76,2.76 C111.39,77.02,110.15,78.26,108.62,78.26z"/>
      <path d="M109.12,87.97H96.91c-1.52,0-2.76-1.24-2.76-2.76s1.24-2.76,2.76-2.76h12.21c1.52,0,2.76,1.24,2.76,2.76 C111.89,86.72,110.64,87.97,109.12,87.97z"/>
    </g>
    <g>
      <path d="M108.3,69.66H96.09c-1.52,0-2.76-1.24-2.76-2.76s1.24-2.76,2.76-2.76h12.21 c1.52,0,2.76,1.24,2.76,2.76C111.07,68.42,109.83,69.66,108.3,69.66z" fill="#90A4AE"/>
      <path d="M108.8,79.37H96.59c-1.52,0-2.76-1.24-2.76-2.76s1.24-2.76,2.76-2.76h12.21 c1.52,0,2.76,1.24,2.76,2.76C111.57,78.13,110.32,79.37,108.8,79.37z" fill="#90A4AE"/>
      <path d="M109.29,89.08H97.08c-1.52,0-2.76-1.24-2.76-2.76s1.24-2.76,2.76-2.76h12.21 c1.52,0,2.76,1.24,2.76,2.76C112.06,87.83,110.82,89.08,109.29,89.08z" fill="#90A4AE"/>
    </g>
    <g>
      <g>
        <circle cx="95.91" cy="50.73" r="0.88"/>
        <circle cx="99.26" cy="50.73" r="0.88"/>
        <circle cx="102.61" cy="50.73" r="0.88"/>
        <circle cx="105.96" cy="50.73" r="0.88"/>
      </g>
      <g>
        <circle cx="95.91" cy="54.03" r="0.88"/>
        <circle cx="99.26" cy="54.03" r="0.88"/>
        <circle cx="102.61" cy="54.03" r="0.88"/>
        <circle cx="105.96" cy="54.03" r="0.88"/>
      </g>
      <g>
        <circle cx="99.26" cy="47.43" r="0.88"/>
        <circle cx="102.61" cy="47.43" r="0.88"/>
      </g>
      <g>
        <circle cx="99.26" cy="57.32" r="0.88"/>
        <circle cx="102.61" cy="57.32" r="0.88"/>
      </g>
    </g>
    <g>
      <ellipse cx="53.84" cy="67.89" rx="3.79" ry="3.32"/>
      <ellipse cx="66.86" cy="67.89" rx="3.79" ry="3.32"/>
      <ellipse cx="79.88" cy="67.89" rx="3.79" ry="3.32"/>
    </g>
    <g>
      <ellipse cx="53.03" cy="77.6" rx="3.79" ry="3.32"/>
      <ellipse cx="66.86" cy="77.6" rx="3.79" ry="3.32"/>
      <ellipse cx="80.7" cy="77.6" rx="3.79" ry="3.32"/>
    </g>
    <g>
      <ellipse cx="52.21" cy="87.31" rx="3.79" ry="3.32"/>
      <ellipse cx="66.86" cy="87.31" rx="3.79" ry="3.32"/>
      <ellipse cx="81.52" cy="87.31" rx="3.79" ry="3.32"/>
    </g>
    <g>
      <ellipse cx="53.84" cy="66.34" rx="3.79" ry="3.32" fill="#BDBDBD"/>
      <ellipse cx="66.86" cy="66.34" rx="3.79" ry="3.32" fill="#BDBDBD"/>
      <ellipse cx="79.88" cy="66.34" rx="3.79" ry="3.32" fill="#BDBDBD"/>
    </g>
    <g>
      <ellipse cx="53.03" cy="76.05" rx="3.79" ry="3.32" fill="#BDBDBD"/>
      <ellipse cx="66.86" cy="76.05" rx="3.79" ry="3.32" fill="#BDBDBD"/>
      <ellipse cx="80.7" cy="76.05" rx="3.79" ry="3.32" fill="#BDBDBD"/>
    </g>
    <g>
      <ellipse cx="52.21" cy="85.76" rx="3.79" ry="3.32" fill="#BDBDBD"/>
      <ellipse cx="66.86" cy="85.76" rx="3.79" ry="3.32" fill="#BDBDBD"/>
      <ellipse cx="81.52" cy="85.76" rx="3.79" ry="3.32" fill="#BDBDBD"/>
    </g>
    <g>
      <ellipse cx="51.39" cy="97.02" rx="3.79" ry="3.32"/>
      <ellipse cx="66.86" cy="97.02" rx="3.79" ry="3.32"/>
      <ellipse cx="82.33" cy="97.02" rx="3.79" ry="3.32"/>
    </g>
    <g>
      <ellipse cx="51.39" cy="95.47" rx="3.79" ry="3.32" fill="#BDBDBD"/>
      <ellipse cx="66.86" cy="95.47" rx="3.79" ry="3.32" fill="#BDBDBD"/>
      <ellipse cx="82.33" cy="95.47" rx="3.79" ry="3.32" fill="#BDBDBD"/>
    </g>
    <ellipse cx="103.19" cy="96.42" rx="4.48" ry="3.92"/>
    <ellipse cx="103.19" cy="95.23" rx="4.48" ry="3.92" fill="#7CB342"/>
    <g opacity="0.8">
      <path d="M98.51,33.9c-0.03,0.71-0.07,1.37-0.11,1.98H50.69c0.01-0.61,0.02-1.28,0.03-1.98H98.51z" fill="#757575"/>
      <path d="M98.58,25.8c0.02,0.67,0.03,1.34,0.04,1.98H50.66c-0.02-0.65-0.04-1.31-0.07-1.98H98.58z" fill="#757575"/>
      <path d="M98,17.7c0.08,0.67,0.15,1.33,0.21,1.98H50.19c-0.06-0.66-0.12-1.32-0.19-1.98H98z" fill="#757575"/>
      <path d="M96.6,9.6c0.16,0.66,0.3,1.32,0.43,1.98H49.16c-0.11-0.66-0.24-1.33-0.37-1.98H96.6z" fill="#757575"/>
    </g>
    <path d="M106.32,113.5l-0.37-1.44c-0.43-0.82-1.21-0.93-1.73-0.93H42.1c-0.52,0-1.3,0.11-1.73,0.93L40,113.5 c-0.28,1.04,0.16,1.78,1.25,1.78h63.82C106.16,115.28,106.6,114.54,106.32,113.5z"/>
    <path d="M18.86,116.24 c9.96-2.08,8.4-20.77,8.4-20.77" fill="none" stroke="#757575" stroke-width="1.983" stroke-linecap="round" stroke-miterlimit="10"/>
    <path d="M13.27,124.09c-0.97-0.03-1.94-0.18-2.65-0.8c-0.3-0.26-0.57-0.6-0.96-0.65 c-0.25-0.03-0.49,0.06-0.72,0.13c-1.2,0.36-2.56,0.09-3.53-0.69c-1.04-0.84-0.99-2.01-1.65-3.02c-0.83-1.27-1.88-2-1.44-3.75 c0.08-0.31,0.2-0.62,0.16-0.93c-0.03-0.27-0.18-0.51-0.3-0.76c-0.88-1.8-0.24-4.38,1.04-5.93c1.32-1.6,3.82-1.6,3.82-1.6l0.3,5.05 c1.78-0.03,3.8,1.37,4.59,3.02c0.21,0.43,0.39,0.88,0.7,1.25c0.31,0.36,0.86,0.59,1.27,0.36c0.31-0.18,0.45-0.54,0.64-0.84 c0.79-1.22,2.55-1.33,3.96-0.98c0.31,0.08,0.65,0.17,0.95,0.05c0.41-0.17,0.57-0.68,0.56-1.12c-0.02-0.44-0.16-0.88-0.13-1.32 c0.06-1.05,0.99-1.8,1.77-2.5c2.2-2,0.7-6.31,4.9-6.88c1.72-0.23,3.07,0.84,3.65,2.19c0.52,1.21,1.05,3.18-0.06,4.36 c-0.08,0.08-0.16,0.16-0.2,0.26c-0.09,0.2,0,0.43,0.07,0.64c0.6,1.81-0.27,3.99-1.95,4.89c0.33,1.32-0.04,2.79-0.95,3.8 s-2.33,1.53-3.68,1.34c0.17,1.25-0.62,2.51-1.72,3.11s-2.46,0.63-3.68,0.3c-0.28-0.08-0.58-0.17-0.85-0.06 c-0.22,0.09-0.36,0.29-0.53,0.45c-0.64,0.6-1.6,0.66-2.48,0.68C13.86,124.09,13.56,124.1,13.27,124.09z" fill="#757575"/>
    <path d="M30.13,108.69c0.78-0.76,0.66-1.85,0.66-1.85c-0.83,0.67-1.67-0.55-1.92-0.84 c-0.92-1.12-2.5-1.65-3.9-1.3c-0.18,0.04-0.37,0.12-0.44,0.29c-0.1,0.3,0.26,0.53,0.56,0.64c1.51,0.6,2.82,1.68,3.71,3.04 c0.2,0.31,0.37,0.65,0.42,1.01c0.28,2.21-1.73,4.15-1.73,4.15c-0.6-1.1-1.26-2.19-2.18-3.04c-0.92-0.85-2.15-1.44-3.39-1.34 c0.08,1.22,1.12,2.14,2.11,2.86c0.99,0.72,2.09,1.5,2.4,2.68c0.34,1.3-0.41,2.64-1.36,3.58c-0.51,0.5-1.8,0.8-2.35,0.33 c-2.98-2.54-2.68-5.35-2.83-5.41c-0.09,0.21-1.62,1.75-0.76,4.35c0.41,1.25,1.64,2.22,2.95,2.27c-0.84,0.72-1.82,1.28-2.88,1.61 c-0.81,0.26-1.75,0.23-2.37-0.36c-0.89-0.84-0.43-2.56-0.9-4.05c-0.21-0.65-0.76-1.4-1.41-1.19c-0.46,0.15-0.64,0.7-0.69,1.19 c-0.2,1.84,0.53,3.76,1.89,5c-1.33,0.82-3.51,0.96-5.47-0.53c-0.56-0.42-0.38-1.74-0.06-2.37c0.52-1.02,2.44-2.79,2.41-3.56 c-0.02-0.55-0.48-1.03-1.02-1.13c-0.54-0.1-1.1,0.09-1.58,0.37c-1.64,0.96-2.54,3.04-2.11,4.9c0.53,2.29-1.06,1.38-2.18,0.5 c-0.69-0.54-1.33-1.03-1.74-1.82c-1.45-2.81-0.06-4.9,2.43-6.32c0.13-0.07,0.27-0.16,0.32-0.3c0.11-0.31-0.27-0.56-0.59-0.61 c-0.95-0.15-1.91,0.33-2.58,1.02c-0.47,0.49-1.3,1.51-1.45,3.03c-0.18,1.8,1.67,3.55,1.67,3.55c0.32,1.4,0.61,2.19,1.65,3.02 c0.97,0.78,2.34,1.05,3.53,0.69c0.24-0.07,0.48-0.17,0.72-0.13c0.39,0.05,0.66,0.4,0.96,0.65c0.71,0.62,1.68,0.78,2.65,0.8 c0.3,0.01,0.59,0,0.88,0c0.88-0.02,1.84-0.07,2.48-0.68c0.17-0.16,0.31-0.36,0.53-0.45c0.27-0.11,0.57-0.02,0.85,0.06 c1.22,0.33,2.57,0.31,3.68-0.3c1.11-0.61,1.89-1.86,1.72-3.11c1.34,0.19,2.77-0.33,3.68-1.34c0.91-1.01,1.28-2.48,0.95-3.8 c1.68-0.9,2.55-3.08,1.95-4.89c-0.07-0.21-0.15-0.44-0.07-0.64C29.97,108.85,30.05,108.77,30.13,108.69z" fill="#424242"/>
    <path d="M35.77,38.27c0.47,0.35,0.87,0.85,0.89,1.44c0.03,0.9-0.83,1.56-1.64,1.95 c-1.91,0.93-4.09,1.31-6.2,1.1c-0.38-0.04-0.77-0.1-1.12-0.25c-2.38-1.02-1.15-3.99,0.89-4.66C31.29,36.97,33.9,36.86,35.77,38.27z " fill="#757575"/>
  </g>
</svg>

<svg viewBox="0 0 128 128" xmlns="http://www.w3.org/2000/svg">
  <defs/>
  <path d="M73.38,97.83 L73.38,121.22 L118.06,121.22 C121.04,121.22 123.84,119.48 124.98,117 C127.36,111.81 125.64,98.25 125.64,98.25 L73.38,97.83 Z" fill="#616161"/>
  <path d="M87.07,97.83 L87.07,121.22 L15.2,121.22 C12.22,121.22 9.42,119.48 8.28,117 C5.9,111.81 7.62,98.25 7.62,98.25 L87.07,97.83 Z" fill="#616161"/>
  <path d="M42.31,41.57 L104.22,41.57 C104.22,41.57 107.08,20.32 100.8,3.91 L38.89,3.91 C43.84,19.27 42.31,41.57 42.31,41.57 Z" fill="#E0E0E0"/>
  <path d="M42.12,46.55 L103.66,46.14 L104.58,39.58 L42.41,39.58 Z" fill="#BDBDBD"/>
  <path d="M116.82,106.44 L15.9,106.44 C9.36,106.44 6.54,103.7 7.09,97.63 L11.61,49.02 C12.58,43.55 15.02,41.92 19.87,41.92 L112.85,41.92 C117.7,41.92 119.52,45.54 119.66,47.42 L125.63,97.63 C125.63,103.52 125.08,106.44 116.82,106.44 Z" fill="#424242"/>
  <path d="M16,87.92 C16,88.39 13.7,94.19 20.7,99.15 C23.93,101.44 39.71,101.71 41.37,90.04 C43.03,78.37 43.07,50.7 43.07,46.14 C43.07,41.58 32.06,41.52 28.46,49.43 C24.86,57.34 16,87.92 16,87.92 Z"/>
  <path d="M26.98,98.01 C22.94,98.01 19.11,96.13 16.96,93.15 C14.2,89.32 15.03,85.17 15.49,80.91 C16.63,70.39 18.04,59.88 20.1,49.48 C23.2,33.79 33.09,36.19 34.87,36.53 C41.19,37.75 42.17,44.21 41.87,46.54 C41.36,50.6 39.16,52.07 38.96,52.38 C38.79,52.63 38.77,52.94 38.76,53.23 C38.76,53.23 37.01,69.76 36.66,77.6 C36.63,78.23 37.86,78.52 38.71,80.86 C39.96,84.3 39.4,89.15 37.53,92.35 C35.52,95.78 31.39,98.01 26.98,98.01 Z" fill="#616161"/>
  <path d="M26.98,98.01 C22.94,98.01 19.11,96.13 16.96,93.15 C16.36,92.32 15,89.68 15.75,89.22 C16.5,88.76 17.47,89.12 18.31,89.39 C21.55,90.41 25.34,90.77 28.13,88.84 C30.13,87.45 31.27,85.09 31.83,82.72 C32.16,81.32 32.35,79.81 33.26,78.69 C35.35,76.09 37.92,78.67 38.72,80.86 C39.97,84.3 39.41,89.15 37.54,92.35 C35.52,95.78 31.39,98.01 26.98,98.01 Z" fill="#424242"/>
  <path d="M82.51,57.32 L52.09,57.32 C49.58,57.32 47.53,54.9 47.53,51.94 L47.53,51.93 C47.53,48.97 49.58,46.55 52.09,46.55 L82.5,46.55 C85.01,46.55 87.06,48.97 87.06,51.93 L87.06,51.94 C87.07,54.9 85.02,57.32 82.51,57.32 Z"/>
  <path d="M80.89,57.34 L53.71,57.34 C51.14,57.34 49.04,55.85 49.04,52.82 L49.04,52.81 C49.04,49.78 51.14,48.29 53.71,48.29 L80.87,48.29 C83.44,48.29 85.54,49.78 85.54,52.81 L85.54,52.82 C85.55,55.85 83.45,57.34 80.89,57.34 Z" fill="#7CB342"/>
  <path d="M108.13,68.55 L95.92,68.55 C94.4,68.55 93.16,67.31 93.16,65.79 C93.16,64.27 94.4,63.03 95.92,63.03 L108.13,63.03 C109.65,63.03 110.89,64.27 110.89,65.79 C110.9,67.31 109.65,68.55 108.13,68.55 Z"/>
  <path d="M108.62,78.26 L96.41,78.26 C94.89,78.26 93.65,77.02 93.65,75.5 C93.65,73.98 94.89,72.74 96.41,72.74 L108.62,72.74 C110.14,72.74 111.38,73.98 111.38,75.5 C111.39,77.02 110.15,78.26 108.62,78.26 Z"/>
  <path d="M109.12,87.97 L96.91,87.97 C95.39,87.97 94.15,86.73 94.15,85.21 C94.15,83.69 95.39,82.45 96.91,82.45 L109.12,82.45 C110.64,82.45 111.88,83.69 111.88,85.21 C111.89,86.72 110.64,87.97 109.12,87.97 Z"/>
  <path d="M108.3,69.66 L96.09,69.66 C94.57,69.66 93.33,68.42 93.33,66.9 C93.33,65.38 94.57,64.14 96.09,64.14 L108.3,64.14 C109.82,64.14 111.06,65.38 111.06,66.9 C111.07,68.42 109.83,69.66 108.3,69.66 Z" fill="#90A4AE"/>
  <path d="M108.8,79.37 L96.59,79.37 C95.07,79.37 93.83,78.13 93.83,76.61 C93.83,75.09 95.07,73.85 96.59,73.85 L108.8,73.85 C110.32,73.85 111.56,75.09 111.56,76.61 C111.57,78.13 110.32,79.37 108.8,79.37 Z" fill="#90A4AE"/>
  <path d="M109.29,89.08 L97.08,89.08 C95.56,89.08 94.32,87.84 94.32,86.32 C94.32,84.8 95.56,83.56 97.08,83.56 L109.29,83.56 C110.81,83.56 112.05,84.8 112.05,86.32 C112.06,87.83 110.82,89.08 109.29,89.08 Z" fill="#90A4AE"/>
  <path d="M96.79,50.73 A0.88 0.88 0 1 1 95.03,50.73 A0.88 0.88 0 1 1 96.79,50.73 Z"/>
  <path d="M100.14,50.73 A0.88 0.88 0 1 1 98.38,50.73 A0.88 0.88 0 1 1 100.14,50.73 Z"/>
  <path d="M103.49,50.73 A0.88 0.88 0 1 1 101.73,50.73 A0.88 0.88 0 1 1 103.49,50.73 Z"/>
  <path d="M106.84,50.73 A0.88 0.88 0 1 1 105.08,50.73 A0.88 0.88 0 1 1 106.84,50.73 Z"/>
  <path d="M96.79,54.03 A0.88 0.88 0 1 1 95.03,54.03 A0.88 0.88 0 1 1 96.79,54.03 Z"/>
  <path d="M100.14,54.03 A0.88 0.88 0 1 1 98.38,54.03 A0.88 0.88 0 1 1 100.14,54.03 Z"/>
  <path d="M103.49,54.03 A0.88 0.88 0 1 1 101.73,54.03 A0.88 0.88 0 1 1 103.49,54.03 Z"/>
  <path d="M106.84,54.03 A0.88 0.88 0 1 1 105.08,54.03 A0.88 0.88 0 1 1 106.84,54.03 Z"/>
  <path d="M100.14,47.43 A0.88 0.88 0 1 1 98.38,47.43 A0.88 0.88 0 1 1 100.14,47.43 Z"/>
  <path d="M103.49,47.43 A0.88 0.88 0 1 1 101.73,47.43 A0.88 0.88 0 1 1 103.49,47.43 Z"/>
  <path d="M100.14,57.32 A0.88 0.88 0 1 1 98.38,57.32 A0.88 0.88 0 1 1 100.14,57.32 Z"/>
  <path d="M103.49,57.32 A0.88 0.88 0 1 1 101.73,57.32 A0.88 0.88 0 1 1 103.49,57.32 Z"/>
  <path d="M57.63,67.89 A3.79 3.32 0 1 1 50.05,67.89 A3.79 3.32 0 1 1 57.63,67.89 Z"/>
  <path d="M70.65,67.89 A3.79 3.32 0 1 1 63.07,67.89 A3.79 3.32 0 1 1 70.65,67.89 Z"/>
  <path d="M83.67,67.89 A3.79 3.32 0 1 1 76.09,67.89 A3.79 3.32 0 1 1 83.67,67.89 Z"/>
  <path d="M56.82,77.6 A3.79 3.32 0 1 1 49.24,77.6 A3.79 3.32 0 1 1 56.82,77.6 Z"/>
  <path d="M70.65,77.6 A3.79 3.32 0 1 1 63.07,77.6 A3.79 3.32 0 1 1 70.65,77.6 Z"/>
  <path d="M84.49,77.6 A3.79 3.32 0 1 1 76.91,77.6 A3.79 3.32 0 1 1 84.49,77.6 Z"/>
  <path d="M56,87.31 A3.79 3.32 0 1 1 48.42,87.31 A3.79 3.32 0 1 1 56,87.31 Z"/>
  <path d="M70.65,87.31 A3.79 3.32 0 1 1 63.07,87.31 A3.79 3.32 0 1 1 70.65,87.31 Z"/>
  <path d="M85.31,87.31 A3.79 3.32 0 1 1 77.73,87.31 A3.79 3.32 0 1 1 85.31,87.31 Z"/>
  <path d="M57.63,66.34 A3.79 3.32 0 1 1 50.05,66.34 A3.79 3.32 0 1 1 57.63,66.34 Z" fill="#BDBDBD"/>
  <path d="M70.65,66.34 A3.79 3.32 0 1 1 63.07,66.34 A3.79 3.32 0 1 1 70.65,66.34 Z" fill="#BDBDBD"/>
  <path d="M83.67,66.34 A3.79 3.32 0 1 1 76.09,66.34 A3.79 3.32 0 1 1 83.67,66.34 Z" fill="#BDBDBD"/>
  <path d="M56.82,76.05 A3.79 3.32 0 1 1 49.24,76.05 A3.79 3.32 0 1 1 56.82,76.05 Z" fill="#BDBDBD"/>
  <path d="M70.65,76.05 A3.79 3.32 0 1 1 63.07,76.05 A3.79 3.32 0 1 1 70.65,76.05 Z" fill="#BDBDBD"/>
  <path d="M84.49,76.05 A3.79 3.32 0 1 1 76.91,76.05 A3.79 3.32 0 1 1 84.49,76.05 Z" fill="#BDBDBD"/>
  <path d="M56,85.76 A3.79 3.32 0 1 1 48.42,85.76 A3.79 3.32 0 1 1 56,85.76 Z" fill="#BDBDBD"/>
  <path d="M70.65,85.76 A3.79 3.32 0 1 1 63.07,85.76 A3.79 3.32 0 1 1 70.65,85.76 Z" fill="#BDBDBD"/>
  <path d="M85.31,85.76 A3.79 3.32 0 1 1 77.73,85.76 A3.79 3.32 0 1 1 85.31,85.76 Z" fill="#BDBDBD"/>
  <path d="M55.18,97.02 A3.79 3.32 0 1 1 47.6,97.02 A3.79 3.32 0 1 1 55.18,97.02 Z"/>
  <path d="M70.65,97.02 A3.79 3.32 0 1 1 63.07,97.02 A3.79 3.32 0 1 1 70.65,97.02 Z"/>
  <path d="M86.12,97.02 A3.79 3.32 0 1 1 78.54,97.02 A3.79 3.32 0 1 1 86.12,97.02 Z"/>
  <path d="M55.18,95.47 A3.79 3.32 0 1 1 47.6,95.47 A3.79 3.32 0 1 1 55.18,95.47 Z" fill="#BDBDBD"/>
  <path d="M70.65,95.47 A3.79 3.32 0 1 1 63.07,95.47 A3.79 3.32 0 1 1 70.65,95.47 Z" fill="#BDBDBD"/>
  <path d="M86.12,95.47 A3.79 3.32 0 1 1 78.54,95.47 A3.79 3.32 0 1 1 86.12,95.47 Z" fill="#BDBDBD"/>
  <path d="M107.67,96.42 A4.48 3.92 0 1 1 98.71,96.42 A4.48 3.92 0 1 1 107.67,96.42 Z"/>
  <path d="M107.67,95.23 A4.48 3.92 0 1 1 98.71,95.23 A4.48 3.92 0 1 1 107.67,95.23 Z" fill="#7CB342"/>
  <g opacity="0.8">
    <path d="M98.51,33.9 C98.48,34.61 98.44,35.27 98.4,35.88 L50.69,35.88 C50.7,35.27 50.71,34.6 50.72,33.9 L98.51,33.9 Z" fill="#757575"/>
    <path d="M98.58,25.8 C98.6,26.47 98.61,27.14 98.62,27.78 L50.66,27.78 C50.64,27.13 50.62,26.47 50.59,25.8 L98.58,25.8 Z" fill="#757575"/>
    <path d="M98,17.7 C98.08,18.37 98.15,19.03 98.21,19.68 L50.19,19.68 C50.13,19.02 50.07,18.36 50,17.7 L98,17.7 Z" fill="#757575"/>
    <path d="M96.6,9.6 C96.76,10.26 96.9,10.92 97.03,11.58 L49.16,11.58 C49.05,10.92 48.92,10.25 48.79,9.6 L96.6,9.6 Z" fill="#757575"/>
  </g>
  <path d="M106.32,113.5 L105.95,112.06 C105.52,111.24 104.74,111.13 104.22,111.13 L42.1,111.13 C41.58,111.13 40.8,111.24 40.37,112.06 L40,113.5 C39.72,114.54 40.16,115.28 41.25,115.28 L105.07,115.28 C106.16,115.28 106.6,114.54 106.32,113.5 Z"/>
  <path d="M18.657,115.269 Q24.222,114.107 25.817,104.91 Q26.651,100.103 26.272,95.552 Q26.189,94.564 27.178,94.482 Q27.672,94.441 27.939,94.667 Q28.207,94.893 28.248,95.388 Q28.649,100.191 27.771,105.249 Q25.945,115.773 19.063,117.211 Q18.577,117.312 18.284,117.12 Q17.991,116.928 17.889,116.443 Q17.687,115.472 18.657,115.269 Z" fill="#757575"/>
  <path d="M13.27,124.09 C12.3,124.06 11.33,123.91 10.62,123.29 C10.32,123.03 10.05,122.69 9.66,122.64 C9.41,122.61 9.17,122.7 8.94,122.77 C7.74,123.13 6.38,122.86 5.41,122.08 C4.37,121.24 4.42,120.07 3.76,119.06 C2.93,117.79 1.88,117.06 2.32,115.31 C2.4,115 2.52,114.69 2.48,114.38 C2.45,114.11 2.3,113.87 2.18,113.62 C1.3,111.82 1.94,109.24 3.22,107.69 C4.54,106.09 7.04,106.09 7.04,106.09 L7.34,111.14 C9.12,111.11 11.14,112.51 11.93,114.16 C12.14,114.59 12.32,115.04 12.63,115.41 C12.94,115.77 13.49,116 13.9,115.77 C14.21,115.59 14.35,115.23 14.54,114.93 C15.33,113.71 17.09,113.6 18.5,113.95 C18.81,114.03 19.15,114.12 19.45,114 C19.86,113.83 20.02,113.32 20.01,112.88 C19.99,112.44 19.85,112 19.88,111.56 C19.94,110.51 20.87,109.76 21.65,109.06 C23.85,107.06 22.35,102.75 26.55,102.18 C28.27,101.95 29.62,103.02 30.2,104.37 C30.72,105.58 31.25,107.55 30.14,108.73 C30.06,108.81 29.98,108.89 29.94,108.99 C29.85,109.19 29.94,109.42 30.01,109.63 C30.61,111.44 29.74,113.62 28.06,114.52 C28.39,115.84 28.02,117.31 27.11,118.32 C26.2,119.33 24.78,119.85 23.43,119.66 C23.6,120.91 22.81,122.17 21.71,122.77 C20.61,123.37 19.25,123.4 18.03,123.07 C17.75,122.99 17.45,122.9 17.18,123.01 C16.96,123.1 16.82,123.3 16.65,123.46 C16.01,124.06 15.05,124.12 14.17,124.14 C13.86,124.09 13.56,124.1 13.27,124.09 Z" fill="#757575"/>
  <path d="M30.13,108.69 C30.91,107.93 30.79,106.84 30.79,106.84 C29.96,107.51 29.12,106.29 28.87,106 C27.95,104.88 26.37,104.35 24.97,104.7 C24.79,104.74 24.6,104.82 24.53,104.99 C24.43,105.29 24.79,105.52 25.09,105.63 C26.6,106.23 27.91,107.31 28.8,108.67 C29,108.98 29.17,109.32 29.22,109.68 C29.5,111.89 27.49,113.83 27.49,113.83 C26.89,112.73 26.23,111.64 25.31,110.79 C24.39,109.94 23.16,109.35 21.92,109.45 C22,110.67 23.04,111.59 24.03,112.31 C25.02,113.03 26.12,113.81 26.43,114.99 C26.77,116.29 26.02,117.63 25.07,118.57 C24.56,119.07 23.27,119.37 22.72,118.9 C19.74,116.36 20.04,113.55 19.89,113.49 C19.8,113.7 18.27,115.24 19.13,117.84 C19.54,119.09 20.77,120.06 22.08,120.11 C21.24,120.83 20.26,121.39 19.2,121.72 C18.39,121.98 17.45,121.95 16.83,121.36 C15.94,120.52 16.4,118.8 15.93,117.31 C15.72,116.66 15.17,115.91 14.52,116.12 C14.06,116.27 13.88,116.82 13.83,117.31 C13.63,119.15 14.36,121.07 15.72,122.31 C14.39,123.13 12.21,123.27 10.25,121.78 C9.69,121.36 9.87,120.04 10.19,119.41 C10.71,118.39 12.63,116.62 12.6,115.85 C12.58,115.3 12.12,114.82 11.58,114.72 C11.04,114.62 10.48,114.81 10,115.09 C8.36,116.05 7.46,118.13 7.89,119.99 C8.42,122.28 6.83,121.37 5.71,120.49 C5.02,119.95 4.38,119.46 3.97,118.67 C2.52,115.86 3.91,113.77 6.4,112.35 C6.53,112.28 6.67,112.19 6.72,112.05 C6.83,111.74 6.45,111.49 6.13,111.44 C5.18,111.29 4.22,111.77 3.55,112.46 C3.08,112.95 2.25,113.97 2.1,115.49 C1.92,117.29 3.77,119.04 3.77,119.04 C4.09,120.44 4.38,121.23 5.42,122.06 C6.39,122.84 7.76,123.11 8.95,122.75 C9.19,122.68 9.43,122.58 9.67,122.62 C10.06,122.67 10.33,123.02 10.63,123.27 C11.34,123.89 12.31,124.05 13.28,124.07 C13.58,124.08 13.87,124.07 14.16,124.07 C15.04,124.05 16,124 16.64,123.39 C16.81,123.23 16.95,123.03 17.17,122.94 C17.44,122.83 17.74,122.92 18.02,123 C19.24,123.33 20.59,123.31 21.7,122.7 C22.81,122.09 23.59,120.84 23.42,119.59 C24.76,119.78 26.19,119.26 27.1,118.25 C28.01,117.24 28.38,115.77 28.05,114.45 C29.73,113.55 30.6,111.37 30,109.56 C29.93,109.35 29.85,109.12 29.93,108.92 C29.97,108.85 30.05,108.77 30.13,108.69 Z" fill="#424242"/>
  <path d="M35.77,38.27 C36.24,38.62 36.64,39.12 36.66,39.71 C36.69,40.61 35.83,41.27 35.02,41.66 C33.11,42.59 30.93,42.97 28.82,42.76 C28.44,42.72 28.05,42.66 27.7,42.51 C25.32,41.49 26.55,38.52 28.59,37.85 C31.29,36.97 33.9,36.86 35.77,38.27 Z" fill="#757575"/>
</svg>
